svg/Filled/arrow-down_filled.svg

<svg viewBox="0 0 24 24" xmlns="http://www.w3.org/2000/svg" width="24" height="24"><path d="M12 5c.62 0 1.13.47 1.2 1.08v9.23l3.67-3.67.1-.08a1.2 1.2 0 0 1 1.68 1.69l-.08.09-4.59 4.59q-.27.28-.55.52a2 2 0 0 1-.75.44 2.2 2.2 0 0 1-1.36 0l-.12-.05a2 2 0 0 1-.63-.4q-.27-.22-.55-.51l-4.59-4.6-.08-.08a1.2 1.2 0 0 1 1.78-1.61l3.67 3.67V6.08A1.2 1.2 0 0 1 12 5"/></svg>

<svg viewBox="0 0 24 24" xmlns="http://www.w3.org/2000/svg" width="24" height="24"><path d="M12 5C12.62 5 13.13 5.47 13.2 6.08L13.2 15.31L16.97 11.56A1.2 1.2 0 0 1 18.65 13.25L13.98 17.93Q13.71 18.21 13.43 18.45A2 2 0 0 1 12.68 18.89A2.2 2.2 0 0 1 11.32 18.89L11.2 18.84A2 2 0 0 1 10.57 18.44Q10.3 18.22 10.02 17.93L5.35 13.25A1.2 1.2 0 0 1 7.13 11.64L10.8 15.31L10.8 6.08A1.2 1.2 0 0 1 12 5"/></svg>
